lib/healthicons/icons/solid/symbols/info.svg

<svg fill="none" height="48" viewBox="0 0 48 48" width="48" xmlns="http://www.w3.org/2000/svg"><path clip-rule="evenodd" d="m44 24c0 11.0457-8.9543 20-20 20s-20-8.9543-20-20 8.9543-20 20-20 20 8.9543 20 20zm-22 11c0 1.1046.8954 2 2 2s2-.8954 2-2v-14c0-1.1046-.8954-2-2-2s-2 .8954-2 2zm2-20c-1.1046 0-2-.8954-2-2s.8954-2 2-2 2 .8954 2 2-.8954 2-2 2z" fill="#333" fill-rule="evenodd"/></svg>

<svg width="48" height="48" viewBox="0 0 48 48" fill="none" xmlns="http://www.w3.org/2000/svg">
<path fill-rule="evenodd" clip-rule="evenodd" d="M44 24C44 35.0457 35.0457 44 24 44C12.9543 44 4 35.0457 4 24C4 12.9543 12.9543 4 24 4C35.0457 4 44 12.9543 44 24ZM22 35C22 36.1046 22.8954 37 24 37C25.1046 37 26 36.1046 26 35V21C26 19.8954 25.1046 19 24 19C22.8954 19 22 19.8954 22 21V35ZM24 15C22.8954 15 22 14.1046 22 13C22 11.8954 22.8954 11 24 11C25.1046 11 26 11.8954 26 13C26 14.1046 25.1046 15 24 15Z" fill="#333333"/>
</svg>
